build/svg/cmd/32/removefiltersort.svg

<?xml version="1.0" encoding="UTF-8" standalone="no"?>
<svg
   xmlns:dc="http://purl.org/dc/elements/1.1/"
   xmlns:cc="http://creativecommons.org/ns#"
   xmlns:rdf="http://www.w3.org/1999/02/22-rdf-syntax-ns#"
   xmlns:svg="http://www.w3.org/2000/svg"
   xmlns="http://www.w3.org/2000/svg"
   xmlns:sodipodi="http://sodipodi.sourceforge.net/DTD/sodipodi-0.dtd"
   xmlns:inkscape="http://www.inkscape.org/namespaces/inkscape"
   viewBox="0 0 32 32"
   version="1.1"
   id="svg6"
   sodipodi:docname="removefiltersort.svg"
   inkscape:export-filename="/home/jupiter007/Libreoffice yaru theme fullcolor/build/cmd/32/removefiltersort.png"
   inkscape:export-xdpi="96"
   inkscape:export-ydpi="96"
   inkscape:version="0.92.5 (2060ec1f9f, 2020-04-08)">
  <metadata
     id="metadata12">
    <rdf:RDF>
      <cc:Work
         rdf:about="">
        <dc:format>image/svg+xml</dc:format>
        <dc:type
           rdf:resource="http://purl.org/dc/dcmitype/StillImage" />
      </cc:Work>
    </rdf:RDF>
  </metadata>
  <defs
     id="defs10" />
  <sodipodi:namedview
     pagecolor="#ffffff"
     bordercolor="#666666"
     borderopacity="1"
     objecttolerance="10"
     gridtolerance="10"
     guidetolerance="10"
     inkscape:pageopacity="0"
     inkscape:pageshadow="2"
     inkscape:window-width="1920"
     inkscape:window-height="1011"
     id="namedview8"
     showgrid="true"
     inkscape:zoom="14.75"
     inkscape:cx="12.669098"
     inkscape:cy="12.119285"
     inkscape:window-x="0"
     inkscape:window-y="32"
     inkscape:window-maximized="1"
     inkscape:current-layer="svg6">
    <inkscape:grid
       type="xygrid"
       id="grid838" />
  </sodipodi:namedview>
  <path
     sodipodi:nodetypes="ccccccccccc"
     id="path842"
     d="M 6.292969,3.9951669 5,5.2881358 v 2.5390624 c 0.05476,0.039897 8,10.6679688 8,10.6679688 v 5.007812 l 6,4.501954 V 18.495167 L 27,7.8271982 V 5.2881358 L 25.707031,3.9951669 Z"
     style="opacity:0.6;fill:#000000;stroke:#000000;stroke-width:2;stroke-linejoin:round;stroke-miterlimit:4;stroke-dasharray:none"
     inkscape:connector-curvature="0" />
  <path
     inkscape:connector-curvature="0"
     style="fill:#ffffff"
     d="M 6.292969,3.9951669 5,5.2881358 v 2.5390624 c 0.05476,0.039897 8,10.6679688 8,10.6679688 v 5.007812 l 6,4.501954 V 18.495167 L 27,7.8271982 V 5.2881358 L 25.707031,3.9951669 Z"
     id="path2"
     sodipodi:nodetypes="ccccccccccc" />
  <circle
     style="opacity:1;vector-effect:none;fill:#c7162b;fill-opacity:1;stroke:none;stroke-width:4.49999952;stroke-linecap:butt;stroke-linejoin:round;stroke-miterlimit:4;stroke-dasharray:none;stroke-dashoffset:0;stroke-opacity:1"
     id="path2644"
     cy="25.5"
     cx="20.5"
     r="4.5" />
  <path
     inkscape:connector-curvature="0"
     id="path1063"
     overflow="visible"
     font-weight="400"
     style="color:#000000;font-weight:400;line-height:normal;font-family:sans-serif;text-indent:0;text-align:start;text-decoration:none;text-decoration-line:none;text-decoration-style:solid;text-decoration-color:#000000;text-transform:none;white-space:normal;overflow:visible;isolation:auto;mix-blend-mode:normal;fill:#ffffff;fill-opacity:1;marker:none"
     d="M 18.37868,24.085786 19.792893,25.5 18.378679,26.914214 19.085786,27.621321 20.5,26.207106 21.914213,27.62132 22.62132,26.914213 21.207107,25.5 22.62132,24.085786 21.914213,23.378679 20.5,24.792893 19.085786,23.378679 Z" />
</svg>

<svg xmlns="http://www.w3.org/2000/svg" viewBox="0 0 32 32"><path d="M6.293 3.995L5 5.288v2.54c.055.04 8 10.667 8 10.667v5.008l6 4.502v-9.51l8-10.668V5.288l-1.293-1.293z" opacity=".6" stroke="#000" stroke-width="2" stroke-linejoin="round"/><path d="M6.293 3.995L5 5.288v2.54c.055.04 8 10.667 8 10.667v5.008l6 4.502v-9.51l8-10.668V5.288l-1.293-1.293z" fill="#fff"/><circle cy="25.5" cx="20.5" r="4.5" fill="#c7162b"/><path overflow="visible" font-weight="400" style="line-height:normal;text-indent:0;text-align:start;text-decoration-line:none;text-decoration-style:solid;text-decoration-color:#000;text-transform:none;white-space:normal;isolation:auto;mix-blend-mode:normal;marker:none" d="M18.379 24.086l1.414 1.414-1.414 1.414.707.707 1.414-1.414 1.414 1.414.707-.707-1.414-1.414 1.414-1.414-.707-.707-1.414 1.414-1.414-1.414z" color="#000" font-family="sans-serif" fill="#fff"/></svg>
